public/calendar.svg

<?xml version="1.0" encoding="utf-8"?><!-- Uploaded to: SVG Repo, www.svgrepo.com, Generator: SVG Repo Mixer Tools -->
<svg width="800px" height="800px" viewBox="0 0 24 24" fill="none" xmlns="http://www.w3.org/2000/svg">
<path d="M10 21H6.2C5.0799 21 4.51984 21 4.09202 20.782C3.71569 20.5903 3.40973 20.2843 3.21799 19.908C3 19.4802 3 18.9201 3 17.8V8.2C3 7.0799 3 6.51984 3.21799 6.09202C3.40973 5.71569 3.71569 5.40973 4.09202 5.21799C4.51984 5 5.0799 5 6.2 5H17.8C18.9201 5 19.4802 5 19.908 5.21799C20.2843 5.40973 20.5903 5.71569 20.782 6.09202C21 6.51984 21 7.0799 21 8.2V10M7 3V5M17 3V5M3 9H21M13.5 13.0001L7 13M10 17.0001L7 17M14 21L16.025 20.595C16.2015 20.5597 16.2898 20.542 16.3721 20.5097C16.4452 20.4811 16.5147 20.4439 16.579 20.399C16.6516 20.3484 16.7152 20.2848 16.8426 20.1574L21 16C21.5523 15.4477 21.5523 14.5523 21 14C20.4477 13.4477 19.5523 13.4477 19 14L14.8426 18.1574C14.7152 18.2848 14.6516 18.3484 14.601 18.421C14.5561 18.4853 14.5189 18.5548 14.4903 18.6279C14.458 18.7102 14.4403 18.7985 14.405 18.975L14 21Z" stroke="#000000" stroke-width="2" stroke-linecap="round" stroke-linejoin="round"/>
</svg>

<svg width="800" height="800" viewBox="0 0 24 24" fill="none" xmlns="http://www.w3.org/2000/svg"><path d="M10 21H6.2c-1.12 0-1.68 0-2.108-.218a2 2 0 0 1-.874-.874C3 19.48 3 18.92 3 17.8V8.2c0-1.12 0-1.68.218-2.108a2 2 0 0 1 .874-.874C4.52 5 5.08 5 6.2 5h11.6c1.12 0 1.68 0 2.108.218a2 2 0 0 1 .874.874C21 6.52 21 7.08 21 8.2V10M7 3v2m10-2v2M3 9h18m-7.5 4H7m3 4H7m7 4 2.025-.405c.177-.035.265-.053.347-.085a.994.994 0 0 0 .207-.111c.073-.05.136-.114.264-.242L21 16a1.414 1.414 0 1 0-2-2l-4.157 4.157a2.098 2.098 0 0 0-.242.264.994.994 0 0 0-.11.207c-.033.082-.05.17-.086.347L14 21Z" stroke="#000" stroke-width="2" stroke-linecap="round" stroke-linejoin="round"/></svg>
